;FLAVOR:Marlin
;TIME:824
;Filament used: 1.38763m
;Layer height: 0.3
;Generated with Cura_SteamEngine 3.4.1
M190 S60
M104 S200
M109 S200
M82 ;absolute extrusion mode
G21 ;metric values
G90 ;absolute positioning
M82 ;set extruder to absolute mode
M107 ;start with the fan off
G28 X0 Y0 ;move X/Y to min endstops
G28 Z0 ;move Z to min endstops
G1 Z15.0 F100 ;move the platform down 15mm
G92 E0 ;zero the extruded length
G1 F200 E3 ;extrude 3mm of feed stock
G92 E0 ;zero the extruded length again
G1 F100
M117 Printing...
G5
G92 E0
G1 F2400 E-6
;LAYER_COUNT:41
;LAYER:0
M106 S255
M204 S3000
M205 X10 Y10
G0 F3000 X76.003 Y87.517 Z0.3
M204 S1800
M205 X8 Y8
;TYPE:SKIRT
G1 F2400 E0
G1 X76.585 Y87.102 E0.04993
G1 X77.21 Y86.753 E0.09993
G1 X77.87 Y86.477 E0.14989
G1 X78.556 Y86.276 E0.19982
G1 X79.261 Y86.153 E0.24981
G1 X80.013 Y86.109 E0.30242
G1 X102.017 Y86.124 E1.83932
G1 X102.731 Y86.164 E1.88927
G1 X103.437 Y86.284 E1.93929
G1 X104.124 Y86.482 E1.98922
G1 X104.785 Y86.755 E2.03917
G1 X105.411 Y87.101 E2.08913
G1 X106.002 Y87.519 E2.13969
G1 X111.541 Y91.933 E2.63439
G1 X115.876 Y94.956 E3.00352
G1 X120.366 Y97.723 E3.3719
G1 X125.03 Y100.245 E3.74224
G1 X129.873 Y102.52 E4.11597
G1 X132.455 Y103.601 E4.31148
G1 X133.098 Y103.913 E4.3614
G1 X133.702 Y104.296 E4.41135
G1 X134.26 Y104.743 E4.46129
G1 X134.765 Y105.25 E4.51127
G1 X135.21 Y105.81 E4.56123
G1 X135.589 Y106.417 E4.61121
G1 X135.899 Y107.062 E4.6612
G1 X136.134 Y107.737 E4.71112
G1 X136.293 Y108.434 E4.76105
G1 X136.383 Y109.498 E4.83564
G1 X136.391 Y117.485 E5.3935
G1 X136.352 Y118.199 E5.44344
G1 X136.233 Y118.904 E5.49338
G1 X136.036 Y119.592 E5.54337
G1 X135.764 Y120.253 E5.59329
G1 X135.42 Y120.88 E5.64324
G1 X135.008 Y121.465 E5.69322
G1 X134.533 Y122 E5.74319
G1 X134.002 Y122.478 E5.79309
G1 X133.42 Y122.895 E5.8431
G1 X132.796 Y123.244 E5.89304
G1 X132.136 Y123.521 E5.94303
G1 X131.45 Y123.722 E5.99296
G1 X130.745 Y123.846 E6.04296
G1 X129.991 Y123.891 E6.09572
G1 X80.009 Y123.891 E9.58677
G1 X79.295 Y123.851 E9.63672
G1 X78.59 Y123.732 E9.68666
G1 X77.902 Y123.534 E9.73666
G1 X77.241 Y123.261 E9.78662
G1 X76.614 Y122.917 E9.83657
G1 X76.03 Y122.504 E9.88653
G1 X75.496 Y122.029 E9.93644
G1 X75.017 Y121.497 E9.98645
G1 X74.602 Y120.915 E10.03637
G1 X74.253 Y120.29 E10.08637
G1 X73.977 Y119.63 E10.13634
G1 X73.776 Y118.944 E10.18627
G1 X73.653 Y118.239 E10.23625
G1 X73.609 Y117.491 E10.28859
G1 X73.609 Y92.509 E12.03349
G1 X73.649 Y91.795 E12.08344
G1 X73.768 Y91.09 E12.13337
G1 X73.966 Y90.402 E12.18338
G1 X74.239 Y89.741 E12.23333
G1 X74.583 Y89.114 E12.28328
G1 X74.996 Y88.53 E12.33324
G1 X75.471 Y87.996 E12.38316
G1 X76.003 Y87.517 E12.43316
M204 S3000
M205 X10 Y10
G0 F3000 X76.548 Y87.805
M204 S1800
M205 X8 Y8
G1 F2400 X77.121 Y87.433 E12.48088
G1 X77.734 Y87.13 E12.52864
G1 X78.377 Y86.902 E12.57629
G1 X79.043 Y86.749 E12.62402
G1 X80.013 Y86.669 E12.692
G1 X102.017 Y86.684 E14.2289
G1 X102.699 Y86.724 E14.27661
G1 X103.372 Y86.844 E14.32436
G1 X104.026 Y87.042 E14.37209
G1 X104.652 Y87.314 E14.41976
G1 X105.243 Y87.658 E14.46752
G1 X105.653 Y87.957 E14.50297
G1 X111.216 Y92.391 E14.99985
G1 X115.547 Y95.411 E15.36863
G1 X120.097 Y98.215 E15.74193
G1 X124.776 Y100.745 E16.11346
G1 X129.639 Y103.029 E16.48872
G1 X132.238 Y104.117 E16.68551
G1 X132.852 Y104.417 E16.73325
G1 X133.427 Y104.787 E16.781
G1 X133.954 Y105.222 E16.82873
G1 X134.427 Y105.715 E16.87645
G1 X134.839 Y106.26 E16.92417
G1 X135.185 Y106.849 E16.97188
G1 X135.459 Y107.475 E17.01961
G1 X135.659 Y108.128 E17.06731
G1 X135.78 Y108.8 E17.115
G1 X135.823 Y109.498 E17.16385
G1 X135.831 Y117.485 E17.72171
G1 X135.792 Y118.167 E17.76943
G1 X135.673 Y118.84 E17.81716
G1 X135.477 Y119.494 E17.86485
G1 X135.205 Y120.121 E17.91258
G1 X134.862 Y120.712 E17.96031
G1 X134.453 Y121.259 E18.00802
G1 X133.982 Y121.755 E18.05579
G1 X133.457 Y122.191 E18.10346
G1 X132.884 Y122.564 E18.15121
G1 X132.272 Y122.867 E18.19891
G1 X131.628 Y123.097 E18.24667
G1 X130.962 Y123.25 E18.2944
G1 X129.991 Y123.331 E18.36246
G1 X80.009 Y123.331 E21.85352
G1 X79.327 Y123.291 E21.90123
G1 X78.654 Y123.172 E21.94897
G1 X78 Y122.975 E21.99668
G1 X77.373 Y122.702 E22.04444
G1 X76.783 Y122.359 E22.09211
G1 X76.236 Y121.949 E22.13986
G1 X75.741 Y121.478 E22.18758
G1 X75.305 Y120.952 E22.2353
G1 X74.933 Y120.379 E22.28302
G1 X74.63 Y119.766 E22.33078
G1 X74.402 Y119.123 E22.37843
G1 X74.249 Y118.457 E22.42616
G1 X74.169 Y117.491 E22.49386
G1 X74.169 Y92.509 E24.23876
G1 X74.209 Y91.827 E24.28648
G1 X74.328 Y91.154 E24.33421
G1 X74.525 Y90.5 E24.38192
G1 X74.798 Y89.873 E24.42968
G1 X75.141 Y89.283 E24.47735
G1 X75.551 Y88.736 E24.5251
G1 X76.022 Y88.241 E24.57282
G1 X76.548 Y87.805 E24.62054
M204 S3000
M205 X10 Y10
G0 F3000 X76.571 Y88.501
M204 S1800
M205 X8 Y8
G1 F2400 X77.089 Y88.11 E24.66587
G1 X77.652 Y87.784 E24.71131
G1 X78.25 Y87.531 E24.75666
G1 X78.874 Y87.352 E24.80201
G1 X79.516 Y87.252 E24.84739
G1 X80.013 Y87.229 E24.88214
G1 X102.017 Y87.244 E26.41904
G1 X102.665 Y87.284 E26.46438
G1 X103.303 Y87.404 E26.50973
G1 X103.922 Y87.601 E26.5551
G1 X104.512 Y87.873 E26.60048
G1 X105.304 Y88.395 E26.66673
G1 X110.875 Y92.835 E27.1643
G1 X115.252 Y95.887 E27.537
G1 X119.808 Y98.695 E27.91081
G1 X124.528 Y101.247 E28.28559
G1 X129.417 Y103.543 E28.66285
G1 X132.022 Y104.634 E28.86011
G1 X132.605 Y104.921 E28.9055
G1 X133.148 Y105.278 E28.95088
G1 X133.643 Y105.698 E28.99623
G1 X134.082 Y106.176 E29.04156
G1 X134.46 Y106.705 E29.08697
G1 X134.77 Y107.276 E29.13235
G1 X135.007 Y107.881 E29.17773
G1 X135.169 Y108.51 E29.2231
G1 X135.251 Y109.154 E29.26844
G1 X135.263 Y109.499 E29.29256
G1 X135.271 Y117.486 E29.85042
G1 X135.232 Y118.134 E29.89576
G1 X135.113 Y118.773 E29.94116
G1 X134.917 Y119.392 E29.98651
G1 X134.646 Y119.983 E30.03192
G1 X134.305 Y120.535 E30.07724
G1 X133.898 Y121.042 E30.12265
G1 X133.433 Y121.495 E30.168
G1 X132.915 Y121.887 E30.21337
G1 X132.353 Y122.213 E30.25875
G1 X131.755 Y122.468 E30.30415
G1 X131.131 Y122.647 E30.3495
G1 X130.489 Y122.747 E30.39488
G1 X129.991 Y122.771 E30.4297
G1 X80.009 Y122.771 E33.92076
G1 X79.361 Y122.731 E33.96611
G1 X78.722 Y122.612 E34.0115
G1 X78.103 Y122.415 E34.05688
G1 X77.513 Y122.144 E34.10222
G1 X76.96 Y121.802 E34.14764
G1 X76.454 Y121.395 E34.193
G1 X76.001 Y120.929 E34.23839
G1 X75.61 Y120.411 E34.28372
G1 X75.284 Y119.848 E34.32916
G1 X75.031 Y119.25 E34.37451
G1 X74.852 Y118.626 E34.41985
G1 X74.752 Y117.984 E34.46524
G1 X74.729 Y117.491 E34.49971
G1 X74.729 Y92.509 E36.24461
G1 X74.769 Y91.861 E36.28995
G1 X74.888 Y91.222 E36.33535
G1 X75.085 Y90.603 E36.38072
G1 X75.356 Y90.013 E36.42607
G1 X75.698 Y89.46 E36.47149
G1 X76.105 Y88.954 E36.51684
G1 X76.571 Y88.501 E36.56224
M204 S3000
M205 X10 Y10
G1 F2400 E30.56224
G0 F3000 X80.854 Y91.835
G0 X80.854 Y93.354
G0 X88.793 Y100.787
M204 S1800
M205 X8 Y8
;TYPE:WALL-INNER
G1 F2400 E36.56224
G1 F1800 X88.339 Y100.969 E36.5964
G1 X87.909 Y101.204 E36.63063
G1 X87.526 Y101.483 E36.66372
G1 X87.328 Y101.659 E36.68223
G1 X87.158 Y101.829 E36.69902
G1 X86.982 Y102.027 E36.71752
G1 X86.717 Y102.39 E36.74891
G1 X86.581 Y102.623 E36.76776
G1 X86.462 Y102.855 E36.78597
G1 X86.286 Y103.297 E36.8192
G1 X86.171 Y103.751 E36.85191
G1 X86.13 Y104.012 E36.87036
G1 X86.107 Y104.255 E36.88741
G1 X86.1 Y104.502 E36.90467
G1 X86.108 Y104.766 E36.92312
G1 X86.166 Y105.23 E36.95578
G1 X86.288 Y105.708 E36.99024
G1 X86.468 Y106.161 E37.02428
G1 X86.704 Y106.591 E37.05854
G1 X86.983 Y106.974 E37.09164
G1 X87.159 Y107.172 E37.11014
G1 X87.329 Y107.342 E37.12693
G1 X87.527 Y107.518 E37.14544
G1 X87.89 Y107.783 E37.17683
G1 X88.123 Y107.919 E37.19567
G1 X88.355 Y108.038 E37.21388
G1 X88.777 Y108.206 E37.24561
G1 X89.034 Y108.279 E37.26427
G1 X89.271 Y108.331 E37.28122
G1 X89.51 Y108.37 E37.29813
G1 X89.755 Y108.393 E37.31532
G1 X90.002 Y108.4 E37.33258
G1 X90.267 Y108.392 E37.3511
G1 X90.708 Y108.336 E37.38215
G1 X90.97 Y108.279 E37.40087
G1 X91.228 Y108.203 E37.41966
G1 X91.661 Y108.032 E37.45218
G1 X92.091 Y107.796 E37.48644
G1 X92.474 Y107.517 E37.51953
G1 X92.672 Y107.341 E37.53804
G1 X92.842 Y107.171 E37.55483
G1 X93.018 Y106.973 E37.57333
G1 X93.283 Y106.61 E37.60472
G1 X93.419 Y106.377 E37.62357
G1 X93.538 Y106.145 E37.64178
G1 X93.704 Y105.725 E37.67332
G1 X93.779 Y105.471 E37.69182
G1 X93.833 Y105.229 E37.70914
G1 X93.87 Y104.989 E37.7261
G1 X93.893 Y104.745 E37.74322
G1 X93.9 Y104.498 E37.76048
G1 X93.892 Y104.233 E37.77899
G1 X93.836 Y103.792 E37.81004
G1 X93.779 Y103.53 E37.82877
G1 X93.703 Y103.272 E37.84756
G1 X93.532 Y102.839 E37.88007
G1 X93.296 Y102.409 E37.91433
G1 X93.017 Y102.026 E37.94743
G1 X92.841 Y101.828 E37.96593
G1 X92.671 Y101.658 E37.98273
G1 X92.473 Y101.482 E38.00123
G1 X92.11 Y101.217 E38.03262
G1 X91.877 Y101.081 E38.05146
G1 X91.645 Y100.962 E38.06968
G1 X91.203 Y100.786 E38.10291
G1 X90.749 Y100.671 E38.13562
G1 X90.488 Y100.63 E38.15407
G1 X90.245 Y100.607 E38.17112
G1 X89.998 Y100.6 E38.18838
G1 X89.733 Y100.608 E38.2069
G1 X89.272 Y100.666 E38.23935
G1 X88.793 Y100.787 E38.27386
M204 S3000
M205 X10 Y10
G0 F3000 X91.042 Y101.282
G0 X91.823 Y101.653
G0 X92.462 Y102.22
G0 X100.6 Y110.9
M204 S1800
M205 X8 Y8
G1 F1800 X128.6 Y110.9 E40.22955
G1 X128.6 Y116.1 E40.59275
G1 X81.4 Y116.1 E43.8895
G1 X81.4 Y93.9 E45.44008
G1 X100.6 Y93.9 E46.78113
G1 X100.6 Y110.9 E47.96852
M204 S3000
M205 X10 Y10
G0 F3000 X101.16 Y110.34
M204 S1800
M205 X8 Y8
G1 F1800 X129.16 Y110.34 E49.92422
G1 X129.16 Y116.66 E50.36564
G1 X80.84 Y116.66 E53.74062
G1 X80.84 Y93.34 E55.36943
G1 X101.16 Y93.34 E56.78871
G1 X101.16 Y110.34 E57.9761
M204 S3000
M205 X10 Y10
G0 F3000 X101.09 Y110.41
G0 X92.146 Y101.888
G0 X91.43 Y101.437
G0 X90.645 Y101.181
G0 X89.941 Y101.139
G0 X88.936 Y101.226
G0 X88.966 Y101.321
M204 S1800
M205 X8 Y8
G1 F1800 X88.578 Y101.476 E58.00528
G1 X88.209 Y101.678 E58.03466
G1 X87.878 Y101.919 E58.06326
G1 X87.713 Y102.066 E58.07869
G1 X87.566 Y102.213 E58.09321
G1 X87.419 Y102.379 E58.1087
G1 X87.186 Y102.698 E58.13629
G1 X87.072 Y102.892 E58.15201
G1 X86.973 Y103.086 E58.16722
G1 X86.82 Y103.47 E58.19609
G1 X86.72 Y103.863 E58.22442
G1 X86.686 Y104.082 E58.2399
G1 X86.666 Y104.29 E58.25449
G1 X86.66 Y104.501 E58.26924
G1 X86.667 Y104.723 E58.28475
G1 X86.717 Y105.125 E58.31304
G1 X86.822 Y105.534 E58.34254
G1 X86.976 Y105.922 E58.37169
G1 X87.178 Y106.291 E58.40108
G1 X87.419 Y106.622 E58.42967
G1 X87.566 Y106.787 E58.44511
G1 X87.713 Y106.934 E58.45963
G1 X87.879 Y107.081 E58.47512
G1 X88.198 Y107.314 E58.50271
G1 X88.392 Y107.428 E58.51842
G1 X88.586 Y107.527 E58.53364
G1 X88.958 Y107.675 E58.5616
G1 X89.171 Y107.736 E58.57708
G1 X89.376 Y107.781 E58.59174
G1 X89.581 Y107.814 E58.60624
G1 X89.79 Y107.834 E58.6209
G1 X90.001 Y107.84 E58.63565
G1 X90.223 Y107.833 E58.65116
G1 X90.613 Y107.784 E58.67861
G1 X90.831 Y107.736 E58.69421
G1 X91.046 Y107.673 E58.70985
G1 X91.422 Y107.524 E58.7381
G1 X91.791 Y107.322 E58.76749
G1 X92.122 Y107.081 E58.79608
G1 X92.287 Y106.934 E58.81152
G1 X92.434 Y106.787 E58.82604
G1 X92.581 Y106.621 E58.84153
G1 X92.814 Y106.302 E58.86912
G1 X92.928 Y106.108 E58.88483
G1 X93.027 Y105.914 E58.90005
G1 X93.174 Y105.543 E58.92792
G1 X93.236 Y105.331 E58.94335
G1 X93.282 Y105.125 E58.95809
G1 X93.314 Y104.919 E58.97265
G1 X93.334 Y104.71 E58.98732
G1 X93.34 Y104.499 E59.00206
G1 X93.333 Y104.277 E59.01757
G1 X93.284 Y103.887 E59.04503
G1 X93.236 Y103.669 E59.06062
G1 X93.173 Y103.454 E59.07627
G1 X93.024 Y103.078 E59.10452
G1 X92.822 Y102.709 E59.1339
G1 X92.581 Y102.378 E59.1625
G1 X92.434 Y102.213 E59.17793
G1 X92.287 Y102.066 E59.19245
G1 X92.121 Y101.919 E59.20794
G1 X91.802 Y101.686 E59.23553
G1 X91.608 Y101.572 E59.25125
G1 X91.414 Y101.473 E59.26646
G1 X91.03 Y101.32 E59.29533
G1 X90.637 Y101.22 E59.32365
G1 X90.418 Y101.186 E59.33913
G1 X90.21 Y101.166 E59.35373
G1 X89.999 Y101.16 E59.36847
G1 X89.777 Y101.167 E59.38399
G1 X89.376 Y101.217 E59.41221
G1 X88.966 Y101.321 E59.44175
M204 S3000
M205 X10 Y10
G0 F3000 X89.14 Y101.855
M204 S1800
M205 X8 Y8
;TYPE:WALL-OUTER
G1 F1800 X88.817 Y101.984 E59.46605
G1 X88.51 Y102.152 E59.49049
G1 X88.23 Y102.356 E59.51469
G1 X88.097 Y102.474 E59.52711
G1 X87.974 Y102.597 E59.53926
G1 X87.856 Y102.73 E59.55168
G1 X87.655 Y103.006 E59.57552
G1 X87.563 Y103.162 E59.58817
G1 X87.484 Y103.317 E59.60032
G1 X87.354 Y103.644 E59.6249
G1 X87.269 Y103.975 E59.64877
G1 X87.242 Y104.152 E59.66128
G1 X87.225 Y104.325 E59.67342
G1 X87.22 Y104.5 E59.68565
G1 X87.226 Y104.679 E59.69816
G1 X87.268 Y105.021 E59.72222
G1 X87.355 Y105.36 E59.74667
G1 X87.484 Y105.683 E59.77096
G1 X87.652 Y105.99 E59.79541
G1 X87.856 Y106.27 E59.8196
G1 X87.974 Y106.403 E59.83202
G1 X88.097 Y106.526 E59.84417
G1 X88.23 Y106.644 E59.85659
G1 X88.506 Y106.845 E59.88044
G1 X88.662 Y106.937 E59.89309
G1 X88.817 Y107.016 E59.90524
G1 X89.139 Y107.144 E59.92944
G1 X89.309 Y107.193 E59.9418
G1 X89.48 Y107.231 E59.95403
G1 X89.652 Y107.258 E59.96619
G1 X89.825 Y107.275 E59.97834
G1 X90 Y107.28 E59.99056
G1 X90.179 Y107.274 E60.00307
G1 X90.517 Y107.232 E60.02686
G1 X90.692 Y107.193 E60.03939
G1 X90.864 Y107.143 E60.0519
G1 X91.183 Y107.016 E60.07588
G1 X91.49 Y106.848 E60.10032
G1 X91.77 Y106.644 E60.12452
G1 X91.903 Y106.526 E60.13694
G1 X92.026 Y106.403 E60.14909
G1 X92.144 Y106.27 E60.16151
G1 X92.345 Y105.994 E60.18535
G1 X92.437 Y105.838 E60.198
G1 X92.516 Y105.683 E60.21015
G1 X92.644 Y105.361 E60.23436
G1 X92.693 Y105.192 E60.24665
G1 X92.731 Y105.021 E60.25888
G1 X92.758 Y104.848 E60.27111
G1 X92.775 Y104.675 E60.28325
G1 X92.78 Y104.5 E60.29548
G1 X92.774 Y104.321 E60.30799
G1 X92.732 Y103.983 E60.33178
G1 X92.693 Y103.808 E60.3443
G1 X92.643 Y103.636 E60.35681
G1 X92.516 Y103.317 E60.3808
G1 X92.348 Y103.01 E60.40524
G1 X92.144 Y102.73 E60.42944
G1 X92.026 Y102.597 E60.44186
G1 X91.903 Y102.474 E60.45401
G1 X91.77 Y102.356 E60.46642
G1 X91.494 Y102.155 E60.49027
G1 X91.338 Y102.063 E60.50292
G1 X91.183 Y101.984 E60.51507
G1 X90.856 Y101.854 E60.53965
G1 X90.525 Y101.769 E60.56352
G1 X90.348 Y101.742 E60.57603
G1 X90.175 Y101.725 E60.58817
G1 X90 Y101.72 E60.6004
G1 X89.821 Y101.726 E60.61291
G1 X89.48 Y101.768 E60.6369
G1 X89.14 Y101.855 E60.66142
M204 S3000
M205 X10 Y10
G0 F3000 X88.954 Y101.929
G0 X88.709 Y101.316
G0 X89.999 Y101.12
G0 X91.042 Y101.282
G0 X91.823 Y101.653
G0 X101.06 Y109.78
G0 X101.72 Y109.78
M204 S1800
M205 X8 Y8
G1 F1800 X129.72 Y109.78 E62.61711
G1 X129.72 Y117.22 E63.13677
G1 X80.28 Y117.22 E66.58997
G1 X80.28 Y92.78 E68.29701
G1 X101.72 Y92.78 E69.79452
G1 X101.72 Y109.78 E70.9819
M204 S3000
M205 X10 Y10
G0 F3000 X101.92 Y109.78
G0 X101.92 Y110.44
G0 X100.05 Y111.45
M204 S1800
M205 X8 Y8
;TYPE:SKIN
G1 F1800 X128.05 Y111.45 E72.9376
G1 X128.05 Y115.55 E73.22397
G1 X81.95 Y115.55 E76.44388
G1 X81.95 Y94.45 E77.91764
G1 X100.05 Y94.45 E79.18186
G1 X100.05 Y111.45 E80.36924
M204 S3000
M205 X10 Y10
G0 F3000 X94.039 Y106.372
M204 S1800
M205 X8 Y8
G1 F1800 X94.225 Y105.904 E80.40442
G1 X94.312 Y105.609 E80.4259
G1 X94.373 Y105.331 E80.44578
G1 X94.416 Y105.057 E80.46515
G1 X94.443 Y104.778 E80.48473
G1 X94.45 Y104.497 E80.50436
G1 X94.44 Y104.19 E80.52582
G1 X94.378 Y103.699 E80.56038
G1 X94.312 Y103.394 E80.58218
G1 X94.224 Y103.093 E80.60408
G1 X94.031 Y102.605 E80.64074
G1 X93.761 Y102.114 E80.67988
G1 X93.446 Y101.68 E80.71733
G1 X93.242 Y101.451 E80.73875
G1 X93.048 Y101.257 E80.75792
G1 X92.819 Y101.054 E80.77929
G1 X92.412 Y100.756 E80.81452
G1 X92.141 Y100.598 E80.83643
G1 X91.873 Y100.461 E80.85746
G1 X91.374 Y100.262 E80.89498
G1 X90.859 Y100.131 E80.9321
G1 X90.557 Y100.084 E80.95344
G1 X90.278 Y100.057 E80.97302
G1 X89.997 Y100.05 E80.99265
G1 X89.69 Y100.06 E81.01411
G1 X89.17 Y100.124 E81.0507
G1 X88.622 Y100.263 E81.09019
G1 X88.104 Y100.47 E81.12915
G1 X87.614 Y100.739 E81.16819
G1 X87.18 Y101.054 E81.20565
G1 X86.951 Y101.258 E81.22707
G1 X86.757 Y101.452 E81.24623
G1 X86.554 Y101.681 E81.26761
G1 X86.256 Y102.088 E81.30284
G1 X86.098 Y102.359 E81.32475
G1 X85.961 Y102.627 E81.34578
G1 X85.762 Y103.126 E81.3833
G1 X85.631 Y103.641 E81.42041
G1 X85.584 Y103.943 E81.44176
G1 X85.557 Y104.222 E81.46134
G1 X85.55 Y104.503 E81.48097
