;FLAVOR:Marlin
;TIME:16356
;Filament used: 25.3917m
;Layer height: 0.3
;Generated with Cura_SteamEngine 3.4.1
M190 S60
M104 S200
M109 S200
M82 ;absolute extrusion mode
G21 ;metric values
G90 ;absolute positioning
M82 ;set extruder to absolute mode
M107 ;start with the fan off
G28 X0 Y0 ;move X/Y to min endstops
G28 Z0 ;move Z to min endstops
G1 Z15.0 F100 ;move the platform down 15mm
G92 E0 ;zero the extruded length
G1 F200 E3 ;extrude 3mm of feed stock
G92 E0 ;zero the extruded length again
G1 F100
M117 Printing...
G5
G92 E0
G1 F2400 E-6
;LAYER_COUNT:7
;LAYER:0
M106 S255
M204 S3000
M205 X10 Y10
G0 F3000 X9.585 Y17.102 Z0.3
M204 S1800
M205 X8 Y8
;TYPE:SKIRT
G1 F2400 E0
G1 X10.21 Y16.753 E0.05
G1 X10.87 Y16.477 E0.09997
G1 X11.556 Y16.276 E0.14989
G1 X12.261 Y16.153 E0.19988
G1 X13.009 Y16.109 E0.25222
G1 X55.001 Y16.112 E3.1852
G1 X55.716 Y16.152 E3.23522
G1 X56.421 Y16.271 E3.28516
G1 X57.106 Y16.468 E3.33494
G1 X59.163 Y17.185 E3.48709
G1 X64.266 Y18.745 E3.8598
G1 X69.478 Y20.022 E4.23461
G1 X71.957 Y20.517 E4.41117
G1 X77.237 Y21.344 E4.78446
G1 X82.549 Y21.87 E5.1573
G1 X85.119 Y22.014 E5.33708
G1 X89.177 Y22.1 E5.62058
G1 X133.542 Y22.06 E8.71932
G1 X138.841 Y21.76 E9.09002
G1 X144.091 Y21.164 E9.45907
G1 X149.316 Y20.268 E9.82935
G1 X154.498 Y19.075 E10.20076
G1 X156.963 Y18.398 E10.3793
G1 X163.031 Y16.423 E10.82501
G1 X163.723 Y16.24 E10.87501
G1 X164.43 Y16.136 E10.92492
G1 X165.012 Y16.109 E10.96562
G1 X196.991 Y16.109 E13.19923
G1 X197.705 Y16.149 E13.24918
G1 X198.41 Y16.268 E13.29912
G1 X199.098 Y16.466 E13.34912
G1 X199.759 Y16.739 E13.39907
G1 X200.386 Y17.083 E13.44903
G1 X200.97 Y17.496 E13.49898
G1 X201.504 Y17.971 E13.5489
G1 X201.983 Y18.503 E13.5989
G1 X202.398 Y19.085 E13.64883
G1 X202.747 Y19.71 E13.69883
G1 X203.023 Y20.37 E13.7488
G1 X203.224 Y21.056 E13.79873
G1 X203.347 Y21.761 E13.84871
G1 X203.391 Y22.509 E13.90105
G1 X203.391 Y187.491 E25.42443
G1 X203.351 Y188.205 E25.47437
G1 X203.232 Y188.91 E25.52431
G1 X203.034 Y189.598 E25.57432
G1 X202.761 Y190.259 E25.62427
G1 X202.417 Y190.886 E25.67422
G1 X202.004 Y191.47 E25.72418
G1 X201.529 Y192.004 E25.7741
G1 X200.997 Y192.483 E25.8241
G1 X200.415 Y192.898 E25.87403
G1 X199.79 Y193.247 E25.92402
G1 X199.13 Y193.523 E25.97399
G1 X198.444 Y193.724 E26.02392
G1 X197.739 Y193.847 E26.07391
G1 X196.991 Y193.891 E26.12624
G1 X13.009 Y193.891 E38.9767
G1 X12.295 Y193.851 E39.02665
G1 X11.59 Y193.732 E39.07659
G1 X10.902 Y193.534 E39.12659
G1 X10.241 Y193.261 E39.17654
G1 X9.614 Y192.917 E39.22649
G1 X9.03 Y192.504 E39.27645
G1 X8.496 Y192.029 E39.32637
G1 X8.017 Y191.497 E39.37637
G1 X7.602 Y190.915 E39.4263
G1 X7.253 Y190.29 E39.4763
G1 X6.977 Y189.63 E39.52626
G1 X6.776 Y188.944 E39.57619
G1 X6.653 Y188.239 E39.62618
G1 X6.609 Y187.491 E39.67851
G1 X6.609 Y22.509 E51.20189
G1 X6.649 Y21.795 E51.25184
G1 X6.768 Y21.09 E51.30178
G1 X6.966 Y20.402 E51.35179
G1 X7.239 Y19.741 E51.40174
G1 X7.583 Y19.114 E51.45169
G1 X7.996 Y18.53 E51.50165
G1 X8.471 Y17.996 E51.55157
G1 X9.003 Y17.517 E51.60157
G1 X9.585 Y17.102 E51.65149
M204 S3000
M205 X10 Y10
G0 F3000 X10.121 Y17.433
M204 S1800
M205 X8 Y8
G1 F2400 X10.734 Y17.13 E51.69925
G1 X11.377 Y16.902 E51.74691
G1 X12.043 Y16.749 E51.79463
G1 X13.009 Y16.669 E51.86234
G1 X55.001 Y16.672 E54.79532
G1 X55.683 Y16.712 E54.84304
G1 X56.356 Y16.831 E54.89077
G1 X56.922 Y16.997 E54.93197
G1 X58.969 Y17.71 E55.08337
G1 X64.131 Y19.288 E55.46039
G1 X69.354 Y20.568 E55.83599
G1 X71.856 Y21.068 E56.0142
G1 X77.164 Y21.899 E56.38946
G1 X82.511 Y22.428 E56.76475
G1 X85.104 Y22.574 E56.94615
G1 X89.165 Y22.66 E57.22986
G1 X133.556 Y22.62 E60.33041
G1 X138.883 Y22.318 E60.70308
G1 X144.18 Y21.717 E61.07543
G1 X149.427 Y20.817 E61.44726
G1 X154.63 Y19.62 E61.82017
G1 X157.14 Y18.93 E62.00198
G1 X163.205 Y16.956 E62.44748
G1 X163.865 Y16.783 E62.49513
G1 X164.542 Y16.688 E62.54288
G1 X165.012 Y16.669 E62.57574
G1 X196.991 Y16.669 E64.80935
G1 X197.673 Y16.709 E64.85707
G1 X198.346 Y16.828 E64.9048
G1 X199 Y17.025 E64.95251
G1 X199.627 Y17.298 E65.00027
G1 X200.217 Y17.641 E65.04794
G1 X200.764 Y18.051 E65.09569
G1 X201.259 Y18.522 E65.14341
G1 X201.695 Y19.048 E65.19113
G1 X202.067 Y19.621 E65.23885
G1 X202.37 Y20.234 E65.28661
G1 X202.598 Y20.877 E65.33426
G1 X202.751 Y21.543 E65.38199
G1 X202.831 Y22.509 E65.44969
G1 X202.831 Y187.491 E76.97307
G1 X202.791 Y188.173 E77.02079
G1 X202.672 Y188.846 E77.06852
G1 X202.475 Y189.5 E77.11623
G1 X202.202 Y190.127 E77.164
G1 X201.859 Y190.717 E77.21166
G1 X201.449 Y191.264 E77.25941
G1 X200.978 Y191.759 E77.30713
G1 X200.452 Y192.195 E77.35485
G1 X199.879 Y192.567 E77.40257
G1 X199.266 Y192.87 E77.45033
G1 X198.623 Y193.098 E77.49798
G1 X197.957 Y193.251 E77.54571
G1 X196.991 Y193.331 E77.61341
G1 X13.009 Y193.331 E90.46387
G1 X12.327 Y193.291 E90.51159
G1 X11.654 Y193.172 E90.55932
G1 X11 Y192.975 E90.60703
G1 X10.373 Y192.702 E90.6548
G1 X9.783 Y192.359 E90.70246
G1 X9.236 Y191.949 E90.75021
G1 X8.741 Y191.478 E90.79793
G1 X8.305 Y190.952 E90.84565
G1 X7.933 Y190.379 E90.89337
G1 X7.63 Y189.766 E90.94113
G1 X7.402 Y189.123 E90.98878
G1 X7.249 Y188.457 E91.03651
G1 X7.169 Y187.491 E91.10421
G1 X7.169 Y22.509 E102.62759
G1 X7.209 Y21.827 E102.67531
G1 X7.328 Y21.154 E102.72305
G1 X7.525 Y20.5 E102.77075
G1 X7.798 Y19.873 E102.81852
G1 X8.141 Y19.283 E102.86619
G1 X8.551 Y18.736 E102.91393
G1 X9.022 Y18.241 E102.96166
G1 X9.548 Y17.805 E103.00938
G1 X10.121 Y17.433 E103.05709
M204 S3000
M205 X10 Y10
G0 F3000 X10.089 Y18.11
M204 S1800
M205 X8 Y8
G1 F2400 X10.652 Y17.784 E103.10253
G1 X11.25 Y17.531 E103.14789
G1 X11.874 Y17.352 E103.19323
G1 X12.516 Y17.252 E103.23861
G1 X13.009 Y17.229 E103.27308
G1 X55.001 Y17.232 E106.20607
G1 X55.65 Y17.272 E106.25148
G1 X56.288 Y17.391 E106.29681
G1 X56.738 Y17.526 E106.32963
G1 X58.806 Y18.246 E106.48257
G1 X63.973 Y19.826 E106.85997
G1 X69.225 Y21.113 E107.23765
G1 X71.78 Y21.623 E107.41963
G1 X77.095 Y22.456 E107.79539
G1 X82.447 Y22.985 E108.17103
G1 X85.089 Y23.134 E108.35586
G1 X89.155 Y23.22 E108.63992
G1 X133.57 Y23.18 E111.74214
G1 X138.944 Y22.876 E112.1181
G1 X144.249 Y22.273 E112.49102
G1 X149.541 Y21.366 E112.86603
G1 X154.763 Y20.164 E113.24031
G1 X157.285 Y19.471 E113.42299
G1 X163.378 Y17.488 E113.87053
G1 X164.007 Y17.326 E113.9159
G1 X164.651 Y17.241 E113.96127
G1 X165.012 Y17.229 E113.9865
G1 X196.991 Y17.229 E116.22011
G1 X197.639 Y17.269 E116.26546
G1 X198.278 Y17.388 E116.31086
G1 X198.897 Y17.585 E116.35623
G1 X199.487 Y17.856 E116.40158
G1 X200.04 Y18.198 E116.447
G1 X200.546 Y18.605 E116.49235
G1 X200.999 Y19.071 E116.53774
G1 X201.39 Y19.589 E116.58308
G1 X201.716 Y20.152 E116.62852
G1 X201.969 Y20.75 E116.67387
G1 X202.148 Y21.374 E116.71921
G1 X202.248 Y22.016 E116.76459
G1 X202.271 Y22.509 E116.79906
G1 X202.271 Y187.491 E128.32244
G1 X202.231 Y188.139 E128.36779
G1 X202.112 Y188.778 E128.41319
G1 X201.915 Y189.397 E128.45856
G1 X201.644 Y189.987 E128.50391
G1 X201.302 Y190.54 E128.54932
G1 X200.895 Y191.046 E128.59468
G1 X200.429 Y191.499 E128.64007
G1 X199.911 Y191.89 E128.6854
G1 X199.348 Y192.216 E128.73084
G1 X198.75 Y192.469 E128.7762
G1 X198.126 Y192.648 E128.82154
G1 X197.484 Y192.748 E128.86692
G1 X196.991 Y192.771 E128.90139
G1 X13.009 Y192.771 E141.75185
G1 X12.361 Y192.731 E141.7972
G1 X11.722 Y192.612 E141.8426
G1 X11.103 Y192.415 E141.88797
G1 X10.513 Y192.144 E141.93332
G1 X9.96 Y191.802 E141.97873
G1 X9.454 Y191.395 E142.02409
G1 X9.001 Y190.929 E142.06948
G1 X8.61 Y190.411 E142.11481
G1 X8.284 Y189.848 E142.16025
G1 X8.031 Y189.25 E142.2056
G1 X7.852 Y188.626 E142.25094
G1 X7.752 Y187.984 E142.29633
G1 X7.729 Y187.491 E142.3308
G1 X7.729 Y22.509 E153.85418
G1 X7.769 Y21.861 E153.89952
G1 X7.888 Y21.222 E153.94492
G1 X8.085 Y20.603 E153.99029
G1 X8.356 Y20.013 E154.03564
G1 X8.698 Y19.46 E154.08106
G1 X9.105 Y18.954 E154.12641
G1 X9.571 Y18.501 E154.17181
G1 X10.089 Y18.11 E154.21714
M204 S3000
M205 X10 Y10
G1 F2400 E148.21714
G0 F3000 X13.854 Y21.835
G0 X13.854 Y23.354
G0 X21.6 Y36.1
M204 S1800
M205 X8 Y8
;TYPE:WALL-INNER
G1 F2400 E154.21714
G1 F1800 X21.6 Y43.9 E154.76194
G1 X34.4 Y43.9 E155.65597
G1 X34.4 Y36.1 E156.20077
G1 X21.6 Y36.1 E157.0948
M204 S3000
M205 X10 Y10
G0 F3000 X22.132 Y43.368
G0 X26.6 Y51.1
M204 S1800
M205 X8 Y8
G1 F1800 X26.6 Y61.9 E157.84914
G1 X59.4 Y61.9 E160.1401
G1 X59.4 Y51.1 E160.89444
G1 X26.6 Y51.1 E163.1854
M204 S3000
M205 X10 Y10
G0 F3000 X53.6 Y29.9
M204 S1800
M205 X8 Y8
G1 F1800 X166.4 Y29.9 E171.06406
G1 X166.4 Y23.9 E171.48314
G1 X195.6 Y23.9 E173.52265
G1 X195.6 Y186.1 E184.85172
G1 X14.4 Y186.1 E197.50786
G1 X14.4 Y23.9 E208.83693
G1 X53.6 Y23.9 E211.57491
G1 X53.6 Y29.9 E211.99398
M204 S3000
M205 X10 Y10
G0 F3000 X64.99 Y56.679
M204 S1800
M205 X8 Y8
G1 F1800 X64.64 Y57.195 E212.03753
G1 X64.323 Y57.73 E212.08097
G1 X64.041 Y58.286 E212.12451
G1 X63.8 Y58.845 E212.16703
G1 X63.685 Y59.145 E212.18947
G1 X63.581 Y59.451 E212.21204
G1 X63.41 Y60.038 E212.25475
G1 X63.276 Y60.645 E212.29817
G1 X63.179 Y61.248 E212.34082
G1 X63.143 Y61.578 E212.36401
G1 X63.104 Y62.19 E212.40684
G1 X63.104 Y62.812 E212.45029
G1 X63.143 Y63.432 E212.49368
G1 X63.222 Y64.05 E212.53719
G1 X63.338 Y64.66 E212.58056
G1 X63.493 Y65.261 E212.62391
G1 X63.684 Y65.852 E212.6673
G1 X63.914 Y66.433 E212.71094
G1 X64.178 Y66.995 E212.75431
G1 X64.474 Y67.53 E212.79702
G1 X64.646 Y67.813 E212.82015
G1 X64.99 Y68.32 E212.86294
G1 X65.372 Y68.811 E212.90639
G1 X65.783 Y69.278 E212.94984
G1 X66.222 Y69.717 E212.99321
G1 X66.689 Y70.127 E213.03661
G1 X67.179 Y70.51 E213.08005
G1 X67.695 Y70.86 E213.1236
G1 X68.23 Y71.177 E213.16703
G1 X68.786 Y71.459 E213.21058
G1 X69.345 Y71.7 E213.2531
G1 X69.645 Y71.815 E213.27554
G1 X69.951 Y71.919 E213.29811
G1 X70.538 Y72.09 E213.34082
G1 X71.145 Y72.224 E213.38423
G1 X71.748 Y72.321 E213.42689
G1 X72.078 Y72.357 E213.45008
G1 X72.69 Y72.396 E213.49291
G1 X73.312 Y72.396 E213.53635
G1 X73.932 Y72.357 E213.57974
G1 X74.55 Y72.278 E213.62326
G1 X75.16 Y72.162 E213.66663
G1 X75.761 Y72.007 E213.70998
G1 X76.352 Y71.816 E213.75336
G1 X76.933 Y71.586 E213.79701
G1 X77.494 Y71.322 E213.84031
G1 X78.041 Y71.021 E213.88392
G1 X78.565 Y70.689 E213.92725
G1 X79.062 Y70.329 E213.97011
G1 X79.32 Y70.119 E213.99335
G1 X79.777 Y69.718 E214.03581
G1 X80.217 Y69.278 E214.07928
G1 X80.627 Y68.811 E214.12268
G1 X81.01 Y68.321 E214.16612
G1 X81.36 Y67.805 E214.20967
G1 X81.677 Y67.27 E214.2531
G1 X81.959 Y66.714 E214.29665
G1 X82.205 Y66.144 E214.34001
G1 X82.416 Y65.56 E214.38338
G1 X82.59 Y64.962 E214.42688
G1 X82.724 Y64.355 E214.4703
G1 X82.821 Y63.752 E214.51296
G1 X82.857 Y63.422 E214.53614
G1 X82.896 Y62.81 E214.57898
G1 X82.896 Y62.188 E214.62242
G1 X82.857 Y61.568 E214.66581
G1 X82.778 Y60.95 E214.70933
G1 X82.662 Y60.34 E214.7527
G1 X82.507 Y59.739 E214.79605
G1 X82.315 Y59.147 E214.83952
G1 X82.086 Y58.569 E214.88294
G1 X81.822 Y58.006 E214.92637
G1 X81.526 Y57.47 E214.96914
G1 X81.354 Y57.187 E214.99227
G1 X81.01 Y56.68 E215.03507
G1 X80.628 Y56.189 E215.07852
G1 X80.217 Y55.722 E215.12197
G1 X79.778 Y55.283 E215.16533
G1 X79.311 Y54.872 E215.20878
G1 X78.82 Y54.49 E215.25223
G1 X78.304 Y54.14 E215.29578
G1 X77.77 Y53.824 E215.33912
G1 X77.214 Y53.541 E215.3827
G1 X76.655 Y53.3 E215.42522
G1 X76.355 Y53.185 E215.44766
G1 X76.049 Y53.081 E215.47023
G1 X75.462 Y52.91 E215.51294
G1 X74.855 Y52.776 E215.55635
G1 X74.252 Y52.679 E215.59901
G1 X73.922 Y52.643 E215.6222
G1 X73.31 Y52.604 E215.66503
G1 X72.688 Y52.604 E215.70847
G1 X72.068 Y52.643 E215.75186
G1 X71.45 Y52.722 E215.79538
G1 X70.84 Y52.838 E215.83875
G1 X70.239 Y52.993 E215.8821
G1 X69.648 Y53.184 E215.92548
G1 X69.067 Y53.414 E215.96913
G1 X68.505 Y53.678 E216.0125
G1 X67.97 Y53.974 E216.0552
G1 X67.687 Y54.146 E216.07833
G1 X67.18 Y54.49 E216.12113
G1 X66.689 Y54.872 E216.16458
G1 X66.222 Y55.283 E216.20803
G1 X65.783 Y55.722 E216.25139
G1 X65.373 Y56.189 E216.2948
G1 X64.99 Y56.679 E216.33824
M204 S3000
M205 X10 Y10
G0 F3000 X63.915 Y60.168
G0 X63.662 Y61.623
G0 X63.662 Y63.382
G0 X63.993 Y65.116
G0 X64.642 Y66.758
G0 X65.411 Y68.013
G0 X119.99 Y130.679
M204 S1800
M205 X8 Y8
G1 F1800 X119.64 Y131.195 E216.38179
G1 X119.323 Y131.73 E216.42522
G1 X119.041 Y132.286 E216.46877
G1 X118.795 Y132.856 E216.51213
G1 X118.584 Y133.44 E216.5555
G1 X118.41 Y134.038 E216.599
G1 X118.276 Y134.645 E216.64242
G1 X118.179 Y135.248 E216.68508
G1 X118.143 Y135.578 E216.70826
G1 X118.104 Y136.19 E216.75109
G1 X118.104 Y136.812 E216.79454
G1 X118.143 Y137.432 E216.83793
G1 X118.222 Y138.05 E216.88145
G1 X118.338 Y138.66 E216.92481
G1 X118.493 Y139.261 E216.96817
G1 X118.685 Y139.853 E217.01164
G1 X118.914 Y140.431 E217.05506
G1 X119.178 Y140.994 E217.09849
G1 X119.474 Y141.53 E217.14126
G1 X119.646 Y141.813 E217.16439
G1 X119.99 Y142.32 E217.20718
G1 X120.372 Y142.811 E217.25063
G1 X120.783 Y143.278 E217.29409
G1 X121.222 Y143.717 E217.33745
G1 X121.689 Y144.127 E217.38085
G1 X122.179 Y144.51 E217.42429
G1 X122.695 Y144.86 E217.46784
G1 X123.23 Y145.177 E217.51128
G1 X123.786 Y145.459 E217.55482
G1 X124.356 Y145.705 E217.59818
G1 X124.94 Y145.916 E217.64155
G1 X125.538 Y146.09 E217.68506
G1 X126.145 Y146.224 E217.72847
G1 X126.748 Y146.321 E217.77113
G1 X127.078 Y146.357 E217.79432
G1 X127.69 Y146.396 E217.83715
G1 X128.312 Y146.396 E217.88059
G1 X128.932 Y146.357 E217.92398
G1 X129.55 Y146.278 E217.9675
G1 X130.16 Y146.162 E218.01087
G1 X130.761 Y146.007 E218.05422
G1 X131.353 Y145.815 E218.09769
G1 X131.931 Y145.586 E218.14112
G1 X132.494 Y145.322 E218.18455
G1 X133.03 Y145.026 E218.22731
G1 X133.313 Y144.854 E218.25045
G1 X133.82 Y144.51 E218.29324
G1 X134.311 Y144.128 E218.33669
G1 X134.778 Y143.717 E218.38014
G1 X135.217 Y143.278 E218.42351
G1 X135.627 Y142.811 E218.46691
G1 X136.01 Y142.321 E218.51035
G1 X136.36 Y141.805 E218.5539
G1 X136.677 Y141.27 E218.59733
G1 X136.959 Y140.714 E218.64088
G1 X137.205 Y140.144 E218.68424
G1 X137.416 Y139.56 E218.72761
G1 X137.59 Y138.962 E218.77111
G1 X137.724 Y138.355 E218.81453
G1 X137.821 Y137.752 E218.85719
G1 X137.857 Y137.422 E218.88037
G1 X137.896 Y136.81 E218.92321
G1 X137.896 Y136.188 E218.96665
G1 X137.857 Y135.568 E219.01004
G1 X137.778 Y134.95 E219.05356
G1 X137.662 Y134.34 E219.09693
G1 X137.507 Y133.739 E219.14028
G1 X137.315 Y133.147 E219.18375
G1 X137.086 Y132.569 E219.22717
G1 X136.822 Y132.006 E219.2706
G1 X136.526 Y131.47 E219.31337
G1 X136.354 Y131.187 E219.3365
G1 X136.01 Y130.68 E219.3793
G1 X135.628 Y130.189 E219.42275
G1 X135.217 Y129.722 E219.4662
G1 X134.778 Y129.283 E219.50956
G1 X134.311 Y128.873 E219.55297
G1 X133.821 Y128.49 E219.59641
G1 X133.305 Y128.14 E219.63995
G1 X132.77 Y127.823 E219.68339
G1 X132.214 Y127.541 E219.72693
G1 X131.644 Y127.295 E219.7703
G1 X131.06 Y127.084 E219.81367
G1 X130.462 Y126.91 E219.85717
G1 X129.855 Y126.776 E219.90058
G1 X129.252 Y126.679 E219.94324
G1 X128.922 Y126.643 E219.96643
G1 X128.31 Y126.604 E220.00926
G1 X127.688 Y126.604 E220.05271
G1 X127.068 Y126.643 E220.0961
G1 X126.45 Y126.722 E220.13961
G1 X125.84 Y126.838 E220.18298
G1 X125.239 Y126.993 E220.22633
G1 X124.647 Y127.185 E220.2698
G1 X124.069 Y127.414 E220.31323
G1 X123.506 Y127.678 E220.35666
G1 X122.97 Y127.974 E220.39943
G1 X122.687 Y128.146 E220.42256
G1 X122.18 Y128.49 E220.46535
G1 X121.689 Y128.872 E220.5088
G1 X121.222 Y129.283 E220.55225
G1 X120.783 Y129.722 E220.59562
G1 X120.373 Y130.189 E220.63902
G1 X119.99 Y130.679 E220.68246
M204 S3000
M205 X10 Y10
G0 F3000 X175.6 Y41.1
M204 S1800
M205 X8 Y8
G1 F1800 X175.6 Y51.9 E221.4368
G1 X188.4 Y51.9 E222.33083
G1 X188.4 Y41.1 E223.08517
G1 X175.6 Y41.1 E223.97921
M204 S3000
M205 X10 Y10
G0 F3000 X176.16 Y41.66
M204 S1800
M205 X8 Y8
G1 F1800 X176.16 Y51.34 E224.65532
G1 X187.84 Y51.34 E225.47112
G1 X187.84 Y41.66 E226.14723
G1 X176.16 Y41.66 E226.96304
M204 S3000
M205 X10 Y10
G0 F3000 X176.09 Y41.59
G0 X81.412 Y58.215
G0 X81.323 Y58.26
M204 S1800
M205 X8 Y8
G1 F1800 X81.042 Y57.751 E227.00365
G1 X80.883 Y57.49 E227.025
G1 X80.557 Y57.01 E227.06552
G1 X80.196 Y56.546 E227.10658
G1 X79.808 Y56.105 E227.14761
G1 X79.395 Y55.692 E227.18841
G1 X78.954 Y55.304 E227.22943
