;FLAVOR:Marlin
;TIME:16523
;Filament used: 26.5196m
;Layer height: 0.3
;Generated with Cura_SteamEngine 3.4.1
M190 S60
M104 S200
M109 S200
M82 ;absolute extrusion mode
G21 ;metric values
G90 ;absolute positioning
M82 ;set extruder to absolute mode
M107 ;start with the fan off
G28 X0 Y0 ;move X/Y to min endstops
G28 Z0 ;move Z to min endstops
G1 Z15.0 F100 ;move the platform down 15mm
G92 E0 ;zero the extruded length
G1 F200 E3 ;extrude 3mm of feed stock
G92 E0 ;zero the extruded length again
G1 F100
M117 Printing...
G5
G92 E0
G1 F2400 E-6
;LAYER_COUNT:14
;LAYER:0
M106 S255
M204 S3000
M205 X10 Y10
G0 F3000 X30.239 Y13.241 Z0.3
M204 S1800
M205 X8 Y8
;TYPE:SKIRT
G1 F2400 E0
G1 X30.583 Y12.614 E0.04995
G1 X30.996 Y12.03 E0.09991
G1 X31.471 Y11.496 E0.14983
G1 X32.003 Y11.017 E0.19983
G1 X32.585 Y10.602 E0.24976
G1 X33.21 Y10.253 E0.29976
G1 X33.87 Y9.977 E0.34972
G1 X34.556 Y9.776 E0.39965
G1 X35.261 Y9.653 E0.44964
G1 X36.009 Y9.609 E0.50197
G1 X173.991 Y9.61 E10.1395
G1 X174.705 Y9.65 E10.18945
G1 X175.41 Y9.769 E10.23939
G1 X176.098 Y9.967 E10.28939
G1 X176.759 Y10.24 E10.33934
G1 X177.386 Y10.584 E10.3893
G1 X177.97 Y10.997 E10.43926
G1 X178.504 Y11.472 E10.48917
G1 X178.983 Y12.004 E10.53918
G1 X179.398 Y12.586 E10.5891
G1 X179.747 Y13.211 E10.6391
G1 X180.023 Y13.871 E10.68907
G1 X180.224 Y14.557 E10.739
G1 X180.347 Y15.262 E10.78898
G1 X180.391 Y16.01 E10.84132
G1 X180.391 Y193.991 E23.27263
G1 X180.351 Y194.705 E23.32258
G1 X180.232 Y195.41 E23.37252
G1 X180.034 Y196.098 E23.42252
G1 X179.761 Y196.759 E23.47247
G1 X179.417 Y197.386 E23.52242
G1 X179.004 Y197.97 E23.57238
G1 X178.529 Y198.504 E23.6223
G1 X177.997 Y198.983 E23.6723
G1 X177.415 Y199.398 E23.72223
G1 X176.79 Y199.747 E23.77223
G1 X176.13 Y200.023 E23.82219
G1 X175.444 Y200.224 E23.87212
G1 X174.739 Y200.347 E23.92211
G1 X173.991 Y200.391 E23.97444
G1 X36.009 Y200.391 E33.61197
G1 X35.295 Y200.351 E33.66192
G1 X34.59 Y200.232 E33.71186
G1 X33.902 Y200.034 E33.76186
G1 X33.241 Y199.761 E33.81182
G1 X32.614 Y199.417 E33.86177
G1 X32.03 Y199.004 E33.91173
G1 X31.496 Y198.529 E33.96165
G1 X31.017 Y197.997 E34.01165
G1 X30.602 Y197.415 E34.06157
G1 X30.253 Y196.79 E34.11157
G1 X29.977 Y196.13 E34.16154
G1 X29.776 Y195.444 E34.21147
G1 X29.653 Y194.739 E34.26145
G1 X29.609 Y193.991 E34.31379
G1 X29.609 Y16.009 E46.74517
G1 X29.649 Y15.295 E46.79512
G1 X29.768 Y14.59 E46.84506
G1 X29.966 Y13.902 E46.89506
G1 X30.239 Y13.241 E46.94501
M204 S3000
M205 X10 Y10
G0 F3000 X30.798 Y13.373
M204 S1800
M205 X8 Y8
G1 F2400 X31.141 Y12.783 E46.99268
G1 X31.551 Y12.236 E47.04043
G1 X32.022 Y11.741 E47.08815
G1 X32.548 Y11.305 E47.13587
G1 X33.121 Y10.933 E47.18359
G1 X33.734 Y10.63 E47.23135
G1 X34.377 Y10.402 E47.279
G1 X35.043 Y10.249 E47.32673
G1 X36.009 Y10.169 E47.39443
G1 X173.991 Y10.17 E57.03196
G1 X174.673 Y10.21 E57.07968
G1 X175.346 Y10.329 E57.12741
G1 X176 Y10.526 E57.17512
G1 X176.627 Y10.799 E57.22288
G1 X177.217 Y11.142 E57.27055
G1 X177.764 Y11.552 E57.3183
G1 X178.259 Y12.023 E57.36602
G1 X178.695 Y12.549 E57.41374
G1 X179.067 Y13.122 E57.46146
G1 X179.37 Y13.735 E57.50922
G1 X179.598 Y14.378 E57.55687
G1 X179.751 Y15.044 E57.6046
G1 X179.831 Y16.01 E57.6723
G1 X179.831 Y193.991 E70.10361
G1 X179.791 Y194.673 E70.15133
G1 X179.672 Y195.346 E70.19907
G1 X179.475 Y196 E70.24677
G1 X179.202 Y196.627 E70.29454
G1 X178.859 Y197.217 E70.3422
G1 X178.449 Y197.764 E70.38995
G1 X177.978 Y198.259 E70.43768
G1 X177.452 Y198.695 E70.4854
G1 X176.879 Y199.067 E70.53311
G1 X176.266 Y199.37 E70.58087
G1 X175.623 Y199.598 E70.62852
G1 X174.957 Y199.751 E70.67625
G1 X173.991 Y199.831 E70.74396
G1 X36.009 Y199.831 E80.38149
G1 X35.327 Y199.791 E80.4292
G1 X34.654 Y199.672 E80.47694
G1 X34 Y199.475 E80.52465
G1 X33.373 Y199.202 E80.57241
G1 X32.783 Y198.859 E80.62008
G1 X32.236 Y198.449 E80.66782
G1 X31.741 Y197.978 E80.71555
G1 X31.305 Y197.452 E80.76327
G1 X30.933 Y196.879 E80.81098
G1 X30.63 Y196.266 E80.85874
G1 X30.402 Y195.623 E80.9064
G1 X30.249 Y194.957 E80.95413
G1 X30.169 Y193.991 E81.02183
G1 X30.169 Y16.009 E93.45321
G1 X30.209 Y15.327 E93.50093
G1 X30.328 Y14.654 E93.54866
G1 X30.525 Y14 E93.59637
G1 X30.798 Y13.373 E93.64413
M204 S3000
M205 X10 Y10
G0 F3000 X31.356 Y13.513
M204 S1800
M205 X8 Y8
G1 F2400 X31.698 Y12.96 E93.68955
G1 X32.105 Y12.454 E93.7349
G1 X32.571 Y12.001 E93.7803
G1 X33.089 Y11.61 E93.82563
G1 X33.652 Y11.284 E93.87107
G1 X34.25 Y11.031 E93.91642
G1 X34.874 Y10.852 E93.96176
G1 X35.516 Y10.752 E94.00714
G1 X36.009 Y10.729 E94.04162
G1 X173.991 Y10.73 E103.67915
G1 X174.639 Y10.77 E103.72449
G1 X175.278 Y10.889 E103.76989
G1 X175.897 Y11.086 E103.81526
G1 X176.487 Y11.357 E103.86061
G1 X177.04 Y11.699 E103.90603
G1 X177.546 Y12.106 E103.95138
G1 X177.999 Y12.572 E103.99678
G1 X178.39 Y13.09 E104.04211
G1 X178.716 Y13.653 E104.08755
G1 X178.969 Y14.251 E104.1329
G1 X179.148 Y14.875 E104.17824
G1 X179.248 Y15.517 E104.22362
G1 X179.271 Y16.01 E104.25809
G1 X179.271 Y193.991 E116.6894
G1 X179.231 Y194.639 E116.73475
G1 X179.112 Y195.278 E116.78015
G1 X178.915 Y195.897 E116.82552
G1 X178.644 Y196.487 E116.87087
G1 X178.302 Y197.04 E116.91629
G1 X177.895 Y197.546 E116.96164
G1 X177.429 Y197.999 E117.00703
G1 X176.911 Y198.39 E117.05237
G1 X176.348 Y198.716 E117.09781
G1 X175.75 Y198.969 E117.14316
G1 X175.126 Y199.148 E117.1885
G1 X174.484 Y199.248 E117.23388
G1 X173.991 Y199.271 E117.26835
G1 X36.009 Y199.271 E126.90588
G1 X35.361 Y199.231 E126.95123
G1 X34.722 Y199.112 E126.99663
G1 X34.103 Y198.915 E127.042
G1 X33.513 Y198.644 E127.08735
G1 X32.96 Y198.302 E127.13276
G1 X32.454 Y197.895 E127.17812
G1 X32.001 Y197.429 E127.22351
G1 X31.61 Y196.911 E127.26884
G1 X31.284 Y196.348 E127.31428
G1 X31.031 Y195.75 E127.35964
G1 X30.852 Y195.126 E127.40498
G1 X30.752 Y194.484 E127.45036
G1 X30.729 Y193.991 E127.48483
G1 X30.729 Y16.009 E139.91621
G1 X30.769 Y15.361 E139.96156
G1 X30.888 Y14.722 E140.00696
G1 X31.085 Y14.103 E140.05233
G1 X31.356 Y13.513 E140.09768
M204 S3000
M205 X10 Y10
G1 F2400 E134.09768
G0 F3000 X35.335 Y16.854
G0 X36.854 Y16.854
G0 X79.6 Y52.321
M204 S1800
M205 X8 Y8
;TYPE:WALL-INNER
G1 F2400 E140.09768
G1 F1800 X79.6 Y59.261 E140.58241
G1 X106.12 Y59.262 E142.43473
G1 X106.4 Y59.262 E142.45429
G1 X106.4 Y58.982 E142.46695
G1 X106.4 Y52.321 E142.9322
G1 X79.6 Y52.321 E144.80408
M204 S3000
M205 X10 Y10
G0 F3000 X80.132 Y58.729
G0 X141.355 Y130.108
M204 S1800
M205 X8 Y8
G1 F1800 X140.962 Y130.414 E144.83887
G1 X140.591 Y130.742 E144.87346
G1 X140.242 Y131.091 E144.90793
G1 X139.914 Y131.462 E144.94252
G1 X139.608 Y131.855 E144.97731
G1 X139.329 Y132.268 E145.01212
G1 X139.076 Y132.696 E145.04684
G1 X138.852 Y133.136 E145.08133
G1 X138.654 Y133.591 E145.11599
G1 X138.486 Y134.059 E145.15072
G1 X138.347 Y134.535 E145.18535
G1 X138.24 Y135.019 E145.21998
G1 X138.161 Y135.51 E145.25471
G1 X138.115 Y136.005 E145.28943
G1 X138.1 Y136.5 E145.32402
G1 X138.115 Y136.995 E145.35861
G1 X138.161 Y137.49 E145.39334
G1 X138.24 Y137.981 E145.42807
G1 X138.347 Y138.465 E145.46269
G1 X138.486 Y138.941 E145.49733
G1 X138.654 Y139.409 E145.53206
G1 X138.852 Y139.864 E145.56672
G1 X139.076 Y140.304 E145.6012
G1 X139.329 Y140.732 E145.63593
G1 X139.608 Y141.145 E145.67074
G1 X139.914 Y141.538 E145.70553
G1 X140.242 Y141.909 E145.74012
G1 X140.591 Y142.258 E145.77459
G1 X140.962 Y142.586 E145.80918
G1 X141.355 Y142.892 E145.84397
G1 X141.768 Y143.171 E145.87878
G1 X142.196 Y143.424 E145.91351
G1 X142.636 Y143.648 E145.94799
G1 X143.091 Y143.846 E145.98265
G1 X143.559 Y144.014 E146.01738
G1 X144.035 Y144.153 E146.05202
G1 X144.519 Y144.26 E146.08664
G1 X145.01 Y144.339 E146.12138
G1 X145.505 Y144.385 E146.1561
G1 X146 Y144.4 E146.19069
G1 X146.495 Y144.385 E146.22528
G1 X146.99 Y144.339 E146.26
G1 X147.481 Y144.26 E146.29474
G1 X147.965 Y144.153 E146.32936
G1 X148.441 Y144.014 E146.36399
G1 X148.909 Y143.846 E146.39873
G1 X149.364 Y143.648 E146.43338
G1 X149.804 Y143.424 E146.46787
G1 X150.232 Y143.171 E146.5026
G1 X150.645 Y142.892 E146.53741
G1 X151.038 Y142.586 E146.5722
G1 X151.409 Y142.258 E146.60679
G1 X151.758 Y141.909 E146.64126
G1 X152.086 Y141.538 E146.67585
G1 X152.392 Y141.145 E146.71064
G1 X152.671 Y140.732 E146.74545
G1 X152.924 Y140.304 E146.78017
G1 X153.148 Y139.864 E146.81466
G1 X153.346 Y139.409 E146.84932
G1 X153.514 Y138.941 E146.88405
G1 X153.653 Y138.465 E146.91868
G1 X153.76 Y137.981 E146.95331
G1 X153.839 Y137.49 E146.98804
G1 X153.885 Y136.995 E147.02276
G1 X153.9 Y136.5 E147.05735
G1 X153.885 Y136.005 E147.09194
G1 X153.839 Y135.51 E147.12667
G1 X153.76 Y135.019 E147.1614
G1 X153.653 Y134.535 E147.19602
G1 X153.514 Y134.059 E147.23066
G1 X153.346 Y133.591 E147.26539
G1 X153.148 Y133.136 E147.30005
G1 X152.924 Y132.696 E147.33453
G1 X152.671 Y132.268 E147.36926
G1 X152.392 Y131.855 E147.40407
G1 X152.086 Y131.462 E147.43886
G1 X151.758 Y131.091 E147.47345
G1 X151.409 Y130.742 E147.50792
G1 X151.038 Y130.414 E147.54251
G1 X150.645 Y130.108 E147.5773
G1 X150.232 Y129.829 E147.61211
G1 X149.804 Y129.576 E147.64684
G1 X149.364 Y129.352 E147.68133
G1 X148.909 Y129.154 E147.71598
G1 X148.441 Y128.986 E147.75071
G1 X147.965 Y128.847 E147.78535
G1 X147.481 Y128.74 E147.81997
G1 X146.99 Y128.661 E147.85471
G1 X146.495 Y128.615 E147.88943
G1 X146 Y128.6 E147.92402
G1 X145.505 Y128.615 E147.95861
G1 X145.01 Y128.661 E147.99333
G1 X144.519 Y128.74 E148.02807
G1 X144.035 Y128.847 E148.06269
G1 X143.559 Y128.986 E148.09733
G1 X143.091 Y129.154 E148.13206
G1 X142.636 Y129.352 E148.16671
G1 X142.196 Y129.576 E148.2012
G1 X141.768 Y129.829 E148.23593
G1 X141.355 Y130.108 E148.27074
M204 S3000
M205 X10 Y10
G0 F3000 X139.532 Y132.946
G0 X138.981 Y134.22
G0 X138.678 Y135.575
G0 X138.644 Y136.698
G0 X140.1 Y155.1
M204 S1800
M205 X8 Y8
G1 F1800 X140.1 Y161.4 E148.71077
G1 X152.9 Y161.4 E149.6048
G1 X152.9 Y155.1 E150.04483
G1 X140.1 Y155.1 E150.93887
M204 S3000
M205 X10 Y10
G0 F3000 X140.632 Y160.868
G0 X172.6 Y192.6
M204 S1800
M205 X8 Y8
G1 F1800 X37.4 Y192.6 E160.38208
G1 X37.4 Y17.4 E172.61915
G1 X172.6 Y17.4 E182.06237
G1 X172.6 Y192.6 E194.29944
M204 S3000
M205 X10 Y10
G0 F3000 X173.16 Y193.16
M204 S1800
M205 X8 Y8
G1 F1800 X36.84 Y193.16 E203.82088
G1 X36.84 Y16.84 E216.13618
G1 X173.16 Y16.84 E225.65763
G1 X173.16 Y193.16 E237.97292
M204 S3000
M205 X10 Y10
G0 F3000 X173.09 Y193.09
G0 X140.632 Y160.868
G0 X140.59 Y155.59
G0 X140.66 Y155.66
M204 S1800
M205 X8 Y8
G1 F1800 X140.66 Y160.84 E238.33473
G1 X152.34 Y160.84 E239.15053
G1 X152.34 Y155.66 E239.51234
G1 X140.66 Y155.66 E240.32814
M204 S3000
M205 X10 Y10
G0 F3000 X140.59 Y155.59
G0 X138.62 Y136.5
G0 X138.751 Y135.117
G0 X139.138 Y133.784
G0 X139.769 Y132.546
G0 X140.458 Y131.657
G0 X141.626 Y130.481
G0 X141.684 Y130.561
M204 S1800
M205 X8 Y8
G1 F1800 X141.32 Y130.845 E240.36039
G1 X140.975 Y131.15 E240.39255
G1 X140.65 Y131.475 E240.42465
G1 X140.345 Y131.82 E240.45682
G1 X140.061 Y132.184 E240.48906
G1 X139.802 Y132.567 E240.52136
G1 X139.567 Y132.965 E240.55364
G1 X139.359 Y133.375 E240.58575
G1 X139.175 Y133.798 E240.61797
G1 X139.019 Y134.232 E240.65018
G1 X138.89 Y134.674 E240.68234
G1 X138.79 Y135.124 E240.71454
G1 X138.717 Y135.58 E240.7468
G1 X138.674 Y136.04 E240.77907
G1 X138.66 Y136.5 E240.81121
G1 X138.674 Y136.96 E240.84335
G1 X138.717 Y137.42 E240.87562
G1 X138.79 Y137.876 E240.90788
G1 X138.89 Y138.326 E240.94008
G1 X139.019 Y138.768 E240.97224
G1 X139.175 Y139.202 E241.00445
G1 X139.359 Y139.625 E241.03667
G1 X139.567 Y140.035 E241.06878
G1 X139.802 Y140.433 E241.10106
G1 X140.061 Y140.816 E241.13336
G1 X140.345 Y141.18 E241.1656
G1 X140.65 Y141.525 E241.19777
G1 X140.975 Y141.85 E241.22987
G1 X141.32 Y142.155 E241.26203
G1 X141.684 Y142.439 E241.29428
G1 X142.067 Y142.698 E241.32657
G1 X142.465 Y142.933 E241.35886
G1 X142.875 Y143.141 E241.39097
G1 X143.298 Y143.325 E241.42319
G1 X143.732 Y143.481 E241.4554
G1 X144.174 Y143.61 E241.48756
G1 X144.624 Y143.71 E241.51976
G1 X145.08 Y143.783 E241.55201
G1 X145.54 Y143.826 E241.58428
G1 X146 Y143.84 E241.61642
G1 X146.46 Y143.826 E241.64857
G1 X146.92 Y143.783 E241.68084
G1 X147.376 Y143.71 E241.71309
G1 X147.826 Y143.61 E241.74529
G1 X148.268 Y143.481 E241.77745
G1 X148.702 Y143.325 E241.80966
G1 X149.125 Y143.141 E241.84188
G1 X149.535 Y142.933 E241.87399
G1 X149.933 Y142.698 E241.90628
G1 X150.316 Y142.439 E241.93857
G1 X150.68 Y142.155 E241.97082
G1 X151.025 Y141.85 E242.00298
G1 X151.35 Y141.525 E242.03508
G1 X151.655 Y141.18 E242.06725
G1 X151.939 Y140.816 E242.09949
G1 X152.198 Y140.433 E242.13179
G1 X152.433 Y140.035 E242.16407
G1 X152.641 Y139.625 E242.19618
G1 X152.825 Y139.202 E242.2284
G1 X152.981 Y138.768 E242.26061
G1 X153.11 Y138.326 E242.29277
G1 X153.21 Y137.876 E242.32497
G1 X153.283 Y137.42 E242.35723
G1 X153.326 Y136.96 E242.38949
G1 X153.34 Y136.5 E242.42164
G1 X153.326 Y136.04 E242.45378
G1 X153.283 Y135.58 E242.48605
G1 X153.21 Y135.124 E242.51831
G1 X153.11 Y134.674 E242.55051
G1 X152.981 Y134.232 E242.58267
G1 X152.825 Y133.798 E242.61488
G1 X152.641 Y133.375 E242.6471
G1 X152.433 Y132.965 E242.67921
G1 X152.198 Y132.567 E242.71149
G1 X151.939 Y132.184 E242.74378
G1 X151.655 Y131.82 E242.77603
G1 X151.35 Y131.475 E242.8082
G1 X151.025 Y131.15 E242.8403
G1 X150.68 Y130.845 E242.87246
G1 X150.316 Y130.561 E242.90471
G1 X149.933 Y130.302 E242.937
G1 X149.535 Y130.067 E242.96928
G1 X149.125 Y129.859 E243.0014
G1 X148.702 Y129.675 E243.03362
G1 X148.268 Y129.519 E243.06583
G1 X147.826 Y129.39 E243.09799
G1 X147.376 Y129.29 E243.13018
G1 X146.92 Y129.217 E243.16244
G1 X146.46 Y129.174 E243.19471
G1 X146 Y129.16 E243.22685
G1 X145.54 Y129.174 E243.259
G1 X145.08 Y129.217 E243.29127
G1 X144.624 Y129.29 E243.32352
G1 X144.174 Y129.39 E243.35572
G1 X143.732 Y129.519 E243.38788
G1 X143.298 Y129.675 E243.42009
G1 X142.875 Y129.859 E243.45231
G1 X142.465 Y130.067 E243.48442
G1 X142.067 Y130.302 E243.51671
G1 X141.684 Y130.561 E243.549
M204 S3000
M205 X10 Y10
G0 F3000 X141.626 Y130.481
G0 X80.132 Y58.729
G0 X80.09 Y52.811
G0 X80.16 Y52.881
M204 S1800
M205 X8 Y8
G1 F1800 X80.16 Y58.701 E243.9555
G1 X105.56 Y58.702 E245.7296
G1 X105.84 Y58.702 E245.74916
G1 X105.84 Y58.422 E245.76182
G1 X105.84 Y52.881 E246.14884
G1 X80.16 Y52.881 E247.94249
M204 S3000
M205 X10 Y10
G0 F3000 X80.72 Y53.441
M204 S1800
M205 X8 Y8
;TYPE:WALL-OUTER
G1 F1800 X80.72 Y58.141 E248.27077
G1 X105 Y58.142 E249.96663
G1 X105.28 Y58.142 E249.98619
G1 X105.28 Y57.862 E249.99885
G1 X105.28 Y53.441 E250.30764
G1 X80.72 Y53.441 E252.02306
M204 S3000
M205 X10 Y10
G0 F3000 X80.72 Y53.641
G0 X80.06 Y53.641
G0 X80.132 Y58.729
G0 X141.609 Y130.494
G0 X142.014 Y131.014
M204 S1800
M205 X8 Y8
G1 F1800 X141.678 Y131.276 E252.05282
G1 X141.358 Y131.558 E252.08262
G1 X141.058 Y131.858 E252.11225
G1 X140.776 Y132.178 E252.14204
G1 X140.514 Y132.514 E252.1718
G1 X140.275 Y132.867 E252.20158
G1 X140.058 Y133.234 E252.23135
G1 X139.866 Y133.613 E252.26103
G1 X139.696 Y134.004 E252.29081
G1 X139.552 Y134.405 E252.32057
G1 X139.433 Y134.814 E252.35032
G1 X139.34 Y135.229 E252.38003
G1 X139.273 Y135.65 E252.4098
G1 X139.233 Y136.075 E252.43962
G1 X139.22 Y136.5 E252.46932
G1 X139.233 Y136.925 E252.49901
G1 X139.273 Y137.35 E252.52883
G1 X139.34 Y137.771 E252.5586
G1 X139.433 Y138.186 E252.58831
G1 X139.552 Y138.595 E252.61806
G1 X139.696 Y138.996 E252.64782
G1 X139.866 Y139.387 E252.6776
G1 X140.058 Y139.766 E252.70728
G1 X140.275 Y140.133 E252.73705
G1 X140.514 Y140.486 E252.76683
G1 X140.776 Y140.822 E252.79659
G1 X141.058 Y141.142 E252.82638
G1 X141.358 Y141.442 E252.85601
G1 X141.678 Y141.724 E252.88581
G1 X142.014 Y141.986 E252.91557
G1 X142.367 Y142.225 E252.94534
G1 X142.734 Y142.442 E252.97512
G1 X143.113 Y142.634 E253.00479
G1 X143.504 Y142.804 E253.03457
G1 X143.905 Y142.948 E253.06433
G1 X144.314 Y143.067 E253.09409
G1 X144.729 Y143.16 E253.12379
G1 X145.15 Y143.227 E253.15357
G1 X145.575 Y143.267 E253.18338
G1 X146 Y143.28 E253.21308
G1 X146.425 Y143.267 E253.24278
G1 X146.85 Y143.227 E253.27259
G1 X147.271 Y143.16 E253.30237
G1 X147.686 Y143.067 E253.33208
G1 X148.095 Y142.948 E253.36183
G1 X148.496 Y142.804 E253.39159
